_includes/icons/color-sales-performance.svg

<svg fill="#666" height="50" viewBox="0 0 48 48" width="50" xmlns="http://www.w3.org/2000/svg"><g fill="#ffa000"><path d="m38 13c-3.300781 0-6-.898437-6-2v2c0 1.101563 2.699219 2 6 2s6-.898437 6-2c0-.398437 0-1.601562 0-2 0 1.101563-2.699219 2-6 2z"/><path d="m38 10c-3.300781 0-6-.898437-6-2v2c0 1.101563 2.699219 2 6 2s6-.898437 6-2c0-.398437 0-1.601562 0-2 0 1.101563-2.699219 2-6 2z"/><path d="m38 16c-3.300781 0-6-.898437-6-2v2c0 1.101563 2.699219 2 6 2s6-.898437 6-2c0-.398437 0-1.601562 0-2 0 1.101563-2.699219 2-6 2z"/><path d="m38 19c-3.300781 0-6-.898437-6-2v2c0 1.101563 2.699219 2 6 2s6-.898437 6-2c0-.398437 0-1.601562 0-2 0 1.101563-2.699219 2-6 2z"/><path d="m38 22c-3.300781 0-6-.898437-6-2v2c0 1.101563 2.699219 2 6 2s6-.898437 6-2c0-.398437 0-1.601562 0-2 0 1.101563-2.699219 2-6 2z"/><path d="m38 25c-3.300781 0-6-.898437-6-2v2c0 1.101563 2.699219 2 6 2s6-.898437 6-2c0-.398437 0-1.601562 0-2 0 1.101563-2.699219 2-6 2z"/><path d="m38 28c-3.300781 0-6-.898437-6-2v2c0 1.101563 2.699219 2 6 2s6-.898437 6-2c0-.398437 0-1.601562 0-2 0 1.101563-2.699219 2-6 2z"/><path d="m38 31c-3.300781 0-6-.898437-6-2v2c0 1.101563 2.699219 2 6 2s6-.898437 6-2c0-.398437 0-1.601562 0-2 0 1.101563-2.699219 2-6 2z"/><path d="m38 34c-3.300781 0-6-.898437-6-2v2c0 1.101563 2.699219 2 6 2s6-.898437 6-2c0-.398437 0-1.601562 0-2 0 1.101563-2.699219 2-6 2z"/><path d="m38 37c-3.300781 0-6-.898437-6-2v2c0 1.101563 2.699219 2 6 2s6-.898437 6-2c0-.398437 0-1.601562 0-2 0 1.101563-2.699219 2-6 2z"/><path d="m38 40c-3.300781 0-6-.898437-6-2v2c0 1.101563 2.699219 2 6 2s6-.898437 6-2c0-.398437 0-1.601562 0-2 0 1.101563-2.699219 2-6 2z"/></g><g fill="#ffc107"><path d="m44 8c0-1.105469-2.6875-2-6-2s-6 .894531-6 2 2.6875 2 6 2 6-.894531 6-2z"/><path d="m38 12c-2.800781 0-5.101562-.601562-5.800781-1.5-.097656.199219-.199219.300781-.199219.5 0 1.101563 2.699219 2 6 2s6-.898437 6-2c0-.199219-.101562-.300781-.199219-.5-.699218.898438-3 1.5-5.800781 1.5z"/><path d="m38 15c-2.800781 0-5.101562-.601562-5.800781-1.5-.097656.199219-.199219.300781-.199219.5 0 1.101563 2.699219 2 6 2s6-.898437 6-2c0-.199219-.101562-.300781-.199219-.5-.699218.898438-3 1.5-5.800781 1.5z"/><path d="m38 18c-2.800781 0-5.101562-.601562-5.800781-1.5-.097656.199219-.199219.300781-.199219.5 0 1.101563 2.699219 2 6 2s6-.898437 6-2c0-.199219-.101562-.300781-.199219-.5-.699218.898438-3 1.5-5.800781 1.5z"/><path d="m38 21c-2.800781 0-5.101562-.601562-5.800781-1.5-.097656.199219-.199219.300781-.199219.5 0 1.101563 2.699219 2 6 2s6-.898437 6-2c0-.199219-.101562-.300781-.199219-.5-.699218.898438-3 1.5-5.800781 1.5z"/><path d="m38 24c-2.800781 0-5.101562-.601562-5.800781-1.5-.097656.199219-.199219.300781-.199219.5 0 1.101563 2.699219 2 6 2s6-.898437 6-2c0-.199219-.101562-.300781-.199219-.5-.699218.898438-3 1.5-5.800781 1.5z"/><path d="m38 27c-2.800781 0-5.101562-.601562-5.800781-1.5-.097656.199219-.199219.300781-.199219.5 0 1.101563 2.699219 2 6 2s6-.898437 6-2c0-.199219-.101562-.300781-.199219-.5-.699218.898438-3 1.5-5.800781 1.5z"/><path d="m38 30c-2.800781 0-5.101562-.601562-5.800781-1.5-.097656.199219-.199219.300781-.199219.5 0 1.101563 2.699219 2 6 2s6-.898437 6-2c0-.199219-.101562-.300781-.199219-.5-.699218.898438-3 1.5-5.800781 1.5z"/><path d="m38 33c-2.800781 0-5.101562-.601562-5.800781-1.5-.097656.199219-.199219.300781-.199219.5 0 1.101563 2.699219 2 6 2s6-.898437 6-2c0-.199219-.101562-.300781-.199219-.5-.699218.898438-3 1.5-5.800781 1.5z"/><path d="m38 36c-2.800781 0-5.101562-.601562-5.800781-1.5-.097656.199219-.199219.300781-.199219.5 0 1.101563 2.699219 2 6 2s6-.898437 6-2c0-.199219-.101562-.300781-.199219-.5-.699218.898438-3 1.5-5.800781 1.5z"/><path d="m38 39c-2.800781 0-5.101562-.601562-5.800781-1.5-.097656.199219-.199219.300781-.199219.5 0 1.101563 2.699219 2 6 2s6-.898437 6-2c0-.199219-.101562-.300781-.199219-.5-.699218.898438-3 1.5-5.800781 1.5z"/></g><path d="m10 19c-3.300781 0-6-.898437-6-2v2c0 1.101563 2.699219 2 6 2s6-.898437 6-2c0-.398437 0-1.601562 0-2 0 1.101563-2.699219 2-6 2z" fill="#ffa000"/><path d="m10 16c-3.300781 0-6-.898437-6-2v2c0 1.101563 2.699219 2 6 2s6-.898437 6-2c0-.398437 0-1.601562 0-2 0 1.101563-2.699219 2-6 2z" fill="#ffa000"/><path d="m10 22c-3.300781 0-6-.898437-6-2v2c0 1.101563 2.699219 2 6 2s6-.898437 6-2c0-.398437 0-1.601562 0-2 0 1.101563-2.699219 2-6 2z" fill="#ffa000"/><path d="m10 25c-3.300781 0-6-.898437-6-2v2c0 1.101563 2.699219 2 6 2s6-.898437 6-2c0-.398437 0-1.601562 0-2 0 1.101563-2.699219 2-6 2z" fill="#ffa000"/><path d="m10 28c-3.300781 0-6-.898437-6-2v2c0 1.101563 2.699219 2 6 2s6-.898437 6-2c0-.398437 0-1.601562 0-2 0 1.101563-2.699219 2-6 2z" fill="#ffa000"/><path d="m10 31c-3.300781 0-6-.898437-6-2v2c0 1.101563 2.699219 2 6 2s6-.898437 6-2c0-.398437 0-1.601562 0-2 0 1.101563-2.699219 2-6 2z" fill="#ffa000"/><path d="m10 34c-3.300781 0-6-.898437-6-2v2c0 1.101563 2.699219 2 6 2s6-.898437 6-2c0-.398437 0-1.601562 0-2 0 1.101563-2.699219 2-6 2z" fill="#ffa000"/><path d="m10 37c-3.300781 0-6-.898437-6-2v2c0 1.101563 2.699219 2 6 2s6-.898437 6-2c0-.398437 0-1.601562 0-2 0 1.101563-2.699219 2-6 2z" fill="#ffa000"/><path d="m10 40c-3.300781 0-6-.898437-6-2v2c0 1.101563 2.699219 2 6 2s6-.898437 6-2c0-.398437 0-1.601562 0-2 0 1.101563-2.699219 2-6 2z" fill="#ffa000"/><path d="m16 14c0-1.105469-2.6875-2-6-2s-6 .894531-6 2 2.6875 2 6 2 6-.894531 6-2z" fill="#ffc107"/><path d="m10 18c-2.800781 0-5.101562-.601562-5.800781-1.5-.097656.199219-.199219.300781-.199219.5 0 1.101563 2.699219 2 6 2s6-.898437 6-2c0-.199219-.101562-.300781-.199219-.5-.699218.898438-3 1.5-5.800781 1.5z" fill="#ffc107"/><path d="m10 21c-2.800781 0-5.101562-.601562-5.800781-1.5-.097656.199219-.199219.300781-.199219.5 0 1.101563 2.699219 2 6 2s6-.898437 6-2c0-.199219-.101562-.300781-.199219-.5-.699218.898438-3 1.5-5.800781 1.5z" fill="#ffc107"/><path d="m10 24c-2.800781 0-5.101562-.601562-5.800781-1.5-.097656.199219-.199219.300781-.199219.5 0 1.101563 2.699219 2 6 2s6-.898437 6-2c0-.199219-.101562-.300781-.199219-.5-.699218.898438-3 1.5-5.800781 1.5z" fill="#ffc107"/><path d="m10 27c-2.800781 0-5.101562-.601562-5.800781-1.5-.097656.199219-.199219.300781-.199219.5 0 1.101563 2.699219 2 6 2s6-.898437 6-2c0-.199219-.101562-.300781-.199219-.5-.699218.898438-3 1.5-5.800781 1.5z" fill="#ffc107"/><path d="m10 30c-2.800781 0-5.101562-.601562-5.800781-1.5-.097656.199219-.199219.300781-.199219.5 0 1.101563 2.699219 2 6 2s6-.898437 6-2c0-.199219-.101562-.300781-.199219-.5-.699218.898438-3 1.5-5.800781 1.5z" fill="#ffc107"/><path d="m10 33c-2.800781 0-5.101562-.601562-5.800781-1.5-.097656.199219-.199219.300781-.199219.5 0 1.101563 2.699219 2 6 2s6-.898437 6-2c0-.199219-.101562-.300781-.199219-.5-.699218.898438-3 1.5-5.800781 1.5z" fill="#ffc107"/><path d="m10 36c-2.800781 0-5.101562-.601562-5.800781-1.5-.097656.199219-.199219.300781-.199219.5 0 1.101563 2.699219 2 6 2s6-.898437 6-2c0-.199219-.101562-.300781-.199219-.5-.699218.898438-3 1.5-5.800781 1.5z" fill="#ffc107"/><path d="m10 39c-2.800781 0-5.101562-.601562-5.800781-1.5-.097656.199219-.199219.300781-.199219.5 0 1.101563 2.699219 2 6 2s6-.898437 6-2c0-.199219-.101562-.300781-.199219-.5-.699218.898438-3 1.5-5.800781 1.5z" fill="#ffc107"/><path d="m24 28c-3.300781 0-6-.898437-6-2v2c0 1.101563 2.699219 2 6 2s6-.898437 6-2c0-.398437 0-1.601562 0-2 0 1.101563-2.699219 2-6 2z" fill="#ffa000"/><path d="m24 25c-3.300781 0-6-.898437-6-2v2c0 1.101563 2.699219 2 6 2s6-.898437 6-2c0-.398437 0-1.601562 0-2 0 1.101563-2.699219 2-6 2z" fill="#ffa000"/><path d="m24 31c-3.300781 0-6-.898437-6-2v2c0 1.101563 2.699219 2 6 2s6-.898437 6-2c0-.398437 0-1.601562 0-2 0 1.101563-2.699219 2-6 2z" fill="#ffa000"/><path d="m24 34c-3.300781 0-6-.898437-6-2v2c0 1.101563 2.699219 2 6 2s6-.898437 6-2c0-.398437 0-1.601562 0-2 0 1.101563-2.699219 2-6 2z" fill="#ffa000"/><path d="m24 37c-3.300781 0-6-.898437-6-2v2c0 1.101563 2.699219 2 6 2s6-.898437 6-2c0-.398437 0-1.601562 0-2 0 1.101563-2.699219 2-6 2z" fill="#ffa000"/><path d="m24 40c-3.300781 0-6-.898437-6-2v2c0 1.101563 2.699219 2 6 2s6-.898437 6-2c0-.398437 0-1.601562 0-2 0 1.101563-2.699219 2-6 2z" fill="#ffa000"/><path d="m30 23c0-1.105469-2.6875-2-6-2s-6 .894531-6 2 2.6875 2 6 2 6-.894531 6-2z" fill="#ffc107"/><path d="m24 27c-2.800781 0-5.101562-.601562-5.800781-1.5-.097656.199219-.199219.300781-.199219.5 0 1.101563 2.699219 2 6 2s6-.898437 6-2c0-.199219-.101562-.300781-.199219-.5-.699218.898438-3 1.5-5.800781 1.5z" fill="#ffc107"/><path d="m24 30c-2.800781 0-5.101562-.601562-5.800781-1.5-.097656.199219-.199219.300781-.199219.5 0 1.101563 2.699219 2 6 2s6-.898437 6-2c0-.199219-.101562-.300781-.199219-.5-.699218.898438-3 1.5-5.800781 1.5z" fill="#ffc107"/><path d="m24 33c-2.800781 0-5.101562-.601562-5.800781-1.5-.097656.199219-.199219.300781-.199219.5 0 1.101563 2.699219 2 6 2s6-.898437 6-2c0-.199219-.101562-.300781-.199219-.5-.699218.898438-3 1.5-5.800781 1.5z" fill="#ffc107"/><path d="m24 36c-2.800781 0-5.101562-.601562-5.800781-1.5-.097656.199219-.199219.300781-.199219.5 0 1.101563 2.699219 2 6 2s6-.898437 6-2c0-.199219-.101562-.300781-.199219-.5-.699218.898438-3 1.5-5.800781 1.5z" fill="#ffc107"/><path d="m24 39c-2.800781 0-5.101562-.601562-5.800781-1.5-.097656.199219-.199219.300781-.199219.5 0 1.101563 2.699219 2 6 2s6-.898437 6-2c0-.199219-.101562-.300781-.199219-.5-.699218.898438-3 1.5-5.800781 1.5z" fill="#ffc107"/></svg>

<svg xmlns="http://www.w3.org/2000/svg" viewBox="0 0 48 48" width="50" height="50" fill="#666"><path d="M 38 13 C 34.699219 13 32 12.101563 32 11 C 32 11.398438 32 12.601563 32 13 C 32 14.101563 34.699219 15 38 15 C 41.300781 15 44 14.101563 44 13 C 44 12.601563 44 11.398438 44 11 C 44 12.101563 41.300781 13 38 13 Z" fill="#ffa000"/><path d="M 38 10 C 34.699219 10 32 9.101563 32 8 C 32 8.398438 32 9.601563 32 10 C 32 11.101563 34.699219 12 38 12 C 41.300781 12 44 11.101563 44 10 C 44 9.601563 44 8.398438 44 8 C 44 9.101563 41.300781 10 38 10 Z" fill="#ffa000"/><path d="M 38 16 C 34.699219 16 32 15.101563 32 14 C 32 14.398438 32 15.601563 32 16 C 32 17.101563 34.699219 18 38 18 C 41.300781 18 44 17.101563 44 16 C 44 15.601563 44 14.398438 44 14 C 44 15.101563 41.300781 16 38 16 Z" fill="#ffa000"/><path d="M 38 19 C 34.699219 19 32 18.101563 32 17 C 32 17.398438 32 18.601563 32 19 C 32 20.101563 34.699219 21 38 21 C 41.300781 21 44 20.101563 44 19 C 44 18.601563 44 17.398438 44 17 C 44 18.101563 41.300781 19 38 19 Z" fill="#ffa000"/><path d="M 38 22 C 34.699219 22 32 21.101563 32 20 C 32 20.398438 32 21.601563 32 22 C 32 23.101563 34.699219 24 38 24 C 41.300781 24 44 23.101563 44 22 C 44 21.601563 44 20.398438 44 20 C 44 21.101563 41.300781 22 38 22 Z" fill="#ffa000"/><path d="M 38 25 C 34.699219 25 32 24.101563 32 23 C 32 23.398438 32 24.601563 32 25 C 32 26.101563 34.699219 27 38 27 C 41.300781 27 44 26.101563 44 25 C 44 24.601563 44 23.398438 44 23 C 44 24.101563 41.300781 25 38 25 Z" fill="#ffa000"/><path d="M 38 28 C 34.699219 28 32 27.101563 32 26 C 32 26.398438 32 27.601563 32 28 C 32 29.101563 34.699219 30 38 30 C 41.300781 30 44 29.101563 44 28 C 44 27.601563 44 26.398438 44 26 C 44 27.101563 41.300781 28 38 28 Z" fill="#ffa000"/><path d="M 38 31 C 34.699219 31 32 30.101563 32 29 C 32 29.398438 32 30.601563 32 31 C 32 32.101563 34.699219 33 38 33 C 41.300781 33 44 32.101563 44 31 C 44 30.601563 44 29.398438 44 29 C 44 30.101563 41.300781 31 38 31 Z" fill="#ffa000"/><path d="M 38 34 C 34.699219 34 32 33.101563 32 32 C 32 32.398438 32 33.601563 32 34 C 32 35.101563 34.699219 36 38 36 C 41.300781 36 44 35.101563 44 34 C 44 33.601563 44 32.398438 44 32 C 44 33.101563 41.300781 34 38 34 Z" fill="#ffa000"/><path d="M 38 37 C 34.699219 37 32 36.101563 32 35 C 32 35.398438 32 36.601563 32 37 C 32 38.101563 34.699219 39 38 39 C 41.300781 39 44 38.101563 44 37 C 44 36.601563 44 35.398438 44 35 C 44 36.101563 41.300781 37 38 37 Z" fill="#ffa000"/><path d="M 38 40 C 34.699219 40 32 39.101563 32 38 C 32 38.398438 32 39.601563 32 40 C 32 41.101563 34.699219 42 38 42 C 41.300781 42 44 41.101563 44 40 C 44 39.601563 44 38.398438 44 38 C 44 39.101563 41.300781 40 38 40 Z" fill="#ffa000"/><path d="M 44 8 C 44 6.894531 41.3125 6 38 6 C 34.6875 6 32 6.894531 32 8 C 32 9.105469 34.6875 10 38 10 C 41.3125 10 44 9.105469 44 8 Z" fill="#ffc107"/><path d="M 38 12 C 35.199219 12 32.898438 11.398438 32.199219 10.5 C 32.101563 10.699219 32 10.800781 32 11 C 32 12.101563 34.699219 13 38 13 C 41.300781 13 44 12.101563 44 11 C 44 10.800781 43.898438 10.699219 43.800781 10.5 C 43.101563 11.398438 40.800781 12 38 12 Z" fill="#ffc107"/><path d="M 38 15 C 35.199219 15 32.898438 14.398438 32.199219 13.5 C 32.101563 13.699219 32 13.800781 32 14 C 32 15.101563 34.699219 16 38 16 C 41.300781 16 44 15.101563 44 14 C 44 13.800781 43.898438 13.699219 43.800781 13.5 C 43.101563 14.398438 40.800781 15 38 15 Z" fill="#ffc107"/><path d="M 38 18 C 35.199219 18 32.898438 17.398438 32.199219 16.5 C 32.101563 16.699219 32 16.800781 32 17 C 32 18.101563 34.699219 19 38 19 C 41.300781 19 44 18.101563 44 17 C 44 16.800781 43.898438 16.699219 43.800781 16.5 C 43.101563 17.398438 40.800781 18 38 18 Z" fill="#ffc107"/><path d="M 38 21 C 35.199219 21 32.898438 20.398438 32.199219 19.5 C 32.101563 19.699219 32 19.800781 32 20 C 32 21.101563 34.699219 22 38 22 C 41.300781 22 44 21.101563 44 20 C 44 19.800781 43.898438 19.699219 43.800781 19.5 C 43.101563 20.398438 40.800781 21 38 21 Z" fill="#ffc107"/><path d="M 38 24 C 35.199219 24 32.898438 23.398438 32.199219 22.5 C 32.101563 22.699219 32 22.800781 32 23 C 32 24.101563 34.699219 25 38 25 C 41.300781 25 44 24.101563 44 23 C 44 22.800781 43.898438 22.699219 43.800781 22.5 C 43.101563 23.398438 40.800781 24 38 24 Z" fill="#ffc107"/><path d="M 38 27 C 35.199219 27 32.898438 26.398438 32.199219 25.5 C 32.101563 25.699219 32 25.800781 32 26 C 32 27.101563 34.699219 28 38 28 C 41.300781 28 44 27.101563 44 26 C 44 25.800781 43.898438 25.699219 43.800781 25.5 C 43.101563 26.398438 40.800781 27 38 27 Z" fill="#ffc107"/><path d="M 38 30 C 35.199219 30 32.898438 29.398438 32.199219 28.5 C 32.101563 28.699219 32 28.800781 32 29 C 32 30.101563 34.699219 31 38 31 C 41.300781 31 44 30.101563 44 29 C 44 28.800781 43.898438 28.699219 43.800781 28.5 C 43.101563 29.398438 40.800781 30 38 30 Z" fill="#ffc107"/><path d="M 38 33 C 35.199219 33 32.898438 32.398438 32.199219 31.5 C 32.101563 31.699219 32 31.800781 32 32 C 32 33.101563 34.699219 34 38 34 C 41.300781 34 44 33.101563 44 32 C 44 31.800781 43.898438 31.699219 43.800781 31.5 C 43.101563 32.398438 40.800781 33 38 33 Z" fill="#ffc107"/><path d="M 38 36 C 35.199219 36 32.898438 35.398438 32.199219 34.5 C 32.101563 34.699219 32 34.800781 32 35 C 32 36.101563 34.699219 37 38 37 C 41.300781 37 44 36.101563 44 35 C 44 34.800781 43.898438 34.699219 43.800781 34.5 C 43.101563 35.398438 40.800781 36 38 36 Z" fill="#ffc107"/><path d="M 38 39 C 35.199219 39 32.898438 38.398438 32.199219 37.5 C 32.101563 37.699219 32 37.800781 32 38 C 32 39.101563 34.699219 40 38 40 C 41.300781 40 44 39.101563 44 38 C 44 37.800781 43.898438 37.699219 43.800781 37.5 C 43.101563 38.398438 40.800781 39 38 39 Z" fill="#ffc107"/><path d="M 10 19 C 6.699219 19 4 18.101563 4 17 C 4 17.398438 4 18.601563 4 19 C 4 20.101563 6.699219 21 10 21 C 13.300781 21 16 20.101563 16 19 C 16 18.601563 16 17.398438 16 17 C 16 18.101563 13.300781 19 10 19 Z" fill="#ffa000"/><path d="M 10 16 C 6.699219 16 4 15.101563 4 14 C 4 14.398438 4 15.601563 4 16 C 4 17.101563 6.699219 18 10 18 C 13.300781 18 16 17.101563 16 16 C 16 15.601563 16 14.398438 16 14 C 16 15.101563 13.300781 16 10 16 Z" fill="#ffa000"/><path d="M 10 22 C 6.699219 22 4 21.101563 4 20 C 4 20.398438 4 21.601563 4 22 C 4 23.101563 6.699219 24 10 24 C 13.300781 24 16 23.101563 16 22 C 16 21.601563 16 20.398438 16 20 C 16 21.101563 13.300781 22 10 22 Z" fill="#ffa000"/><path d="M 10 25 C 6.699219 25 4 24.101563 4 23 C 4 23.398438 4 24.601563 4 25 C 4 26.101563 6.699219 27 10 27 C 13.300781 27 16 26.101563 16 25 C 16 24.601563 16 23.398438 16 23 C 16 24.101563 13.300781 25 10 25 Z" fill="#ffa000"/><path d="M 10 28 C 6.699219 28 4 27.101563 4 26 C 4 26.398438 4 27.601563 4 28 C 4 29.101563 6.699219 30 10 30 C 13.300781 30 16 29.101563 16 28 C 16 27.601563 16 26.398438 16 26 C 16 27.101563 13.300781 28 10 28 Z" fill="#ffa000"/><path d="M 10 31 C 6.699219 31 4 30.101563 4 29 C 4 29.398438 4 30.601563 4 31 C 4 32.101563 6.699219 33 10 33 C 13.300781 33 16 32.101563 16 31 C 16 30.601563 16 29.398438 16 29 C 16 30.101563 13.300781 31 10 31 Z" fill="#ffa000"/><path d="M 10 34 C 6.699219 34 4 33.101563 4 32 C 4 32.398438 4 33.601563 4 34 C 4 35.101563 6.699219 36 10 36 C 13.300781 36 16 35.101563 16 34 C 16 33.601563 16 32.398438 16 32 C 16 33.101563 13.300781 34 10 34 Z" fill="#ffa000"/><path d="M 10 37 C 6.699219 37 4 36.101563 4 35 C 4 35.398438 4 36.601563 4 37 C 4 38.101563 6.699219 39 10 39 C 13.300781 39 16 38.101563 16 37 C 16 36.601563 16 35.398438 16 35 C 16 36.101563 13.300781 37 10 37 Z" fill="#ffa000"/><path d="M 10 40 C 6.699219 40 4 39.101563 4 38 C 4 38.398438 4 39.601563 4 40 C 4 41.101563 6.699219 42 10 42 C 13.300781 42 16 41.101563 16 40 C 16 39.601563 16 38.398438 16 38 C 16 39.101563 13.300781 40 10 40 Z" fill="#ffa000"/><path d="M 16 14 C 16 12.894531 13.3125 12 10 12 C 6.6875 12 4 12.894531 4 14 C 4 15.105469 6.6875 16 10 16 C 13.3125 16 16 15.105469 16 14 Z" fill="#ffc107"/><path d="M 10 18 C 7.199219 18 4.898438 17.398438 4.199219 16.5 C 4.101563 16.699219 4 16.800781 4 17 C 4 18.101563 6.699219 19 10 19 C 13.300781 19 16 18.101563 16 17 C 16 16.800781 15.898438 16.699219 15.800781 16.5 C 15.101563 17.398438 12.800781 18 10 18 Z" fill="#ffc107"/><path d="M 10 21 C 7.199219 21 4.898438 20.398438 4.199219 19.5 C 4.101563 19.699219 4 19.800781 4 20 C 4 21.101563 6.699219 22 10 22 C 13.300781 22 16 21.101563 16 20 C 16 19.800781 15.898438 19.699219 15.800781 19.5 C 15.101563 20.398438 12.800781 21 10 21 Z" fill="#ffc107"/><path d="M 10 24 C 7.199219 24 4.898438 23.398438 4.199219 22.5 C 4.101563 22.699219 4 22.800781 4 23 C 4 24.101563 6.699219 25 10 25 C 13.300781 25 16 24.101563 16 23 C 16 22.800781 15.898438 22.699219 15.800781 22.5 C 15.101563 23.398438 12.800781 24 10 24 Z" fill="#ffc107"/><path d="M 10 27 C 7.199219 27 4.898438 26.398438 4.199219 25.5 C 4.101563 25.699219 4 25.800781 4 26 C 4 27.101563 6.699219 28 10 28 C 13.300781 28 16 27.101563 16 26 C 16 25.800781 15.898438 25.699219 15.800781 25.5 C 15.101563 26.398438 12.800781 27 10 27 Z" fill="#ffc107"/><path d="M 10 30 C 7.199219 30 4.898438 29.398438 4.199219 28.5 C 4.101563 28.699219 4 28.800781 4 29 C 4 30.101563 6.699219 31 10 31 C 13.300781 31 16 30.101563 16 29 C 16 28.800781 15.898438 28.699219 15.800781 28.5 C 15.101563 29.398438 12.800781 30 10 30 Z" fill="#ffc107"/><path d="M 10 33 C 7.199219 33 4.898438 32.398438 4.199219 31.5 C 4.101563 31.699219 4 31.800781 4 32 C 4 33.101563 6.699219 34 10 34 C 13.300781 34 16 33.101563 16 32 C 16 31.800781 15.898438 31.699219 15.800781 31.5 C 15.101563 32.398438 12.800781 33 10 33 Z" fill="#ffc107"/><path d="M 10 36 C 7.199219 36 4.898438 35.398438 4.199219 34.5 C 4.101563 34.699219 4 34.800781 4 35 C 4 36.101563 6.699219 37 10 37 C 13.300781 37 16 36.101563 16 35 C 16 34.800781 15.898438 34.699219 15.800781 34.5 C 15.101563 35.398438 12.800781 36 10 36 Z" fill="#ffc107"/><path d="M 10 39 C 7.199219 39 4.898438 38.398438 4.199219 37.5 C 4.101563 37.699219 4 37.800781 4 38 C 4 39.101563 6.699219 40 10 40 C 13.300781 40 16 39.101563 16 38 C 16 37.800781 15.898438 37.699219 15.800781 37.5 C 15.101563 38.398438 12.800781 39 10 39 Z" fill="#ffc107"/><path d="M 24 28 C 20.699219 28 18 27.101563 18 26 C 18 26.398438 18 27.601563 18 28 C 18 29.101563 20.699219 30 24 30 C 27.300781 30 30 29.101563 30 28 C 30 27.601563 30 26.398438 30 26 C 30 27.101563 27.300781 28 24 28 Z" fill="#ffa000"/><path d="M 24 25 C 20.699219 25 18 24.101563 18 23 C 18 23.398438 18 24.601563 18 25 C 18 26.101563 20.699219 27 24 27 C 27.300781 27 30 26.101563 30 25 C 30 24.601563 30 23.398438 30 23 C 30 24.101563 27.300781 25 24 25 Z" fill="#ffa000"/><path d="M 24 31 C 20.699219 31 18 30.101563 18 29 C 18 29.398438 18 30.601563 18 31 C 18 32.101563 20.699219 33 24 33 C 27.300781 33 30 32.101563 30 31 C 30 30.601563 30 29.398438 30 29 C 30 30.101563 27.300781 31 24 31 Z" fill="#ffa000"/><path d="M 24 34 C 20.699219 34 18 33.101563 18 32 C 18 32.398438 18 33.601563 18 34 C 18 35.101563 20.699219 36 24 36 C 27.300781 36 30 35.101563 30 34 C 30 33.601563 30 32.398438 30 32 C 30 33.101563 27.300781 34 24 34 Z" fill="#ffa000"/><path d="M 24 37 C 20.699219 37 18 36.101563 18 35 C 18 35.398438 18 36.601563 18 37 C 18 38.101563 20.699219 39 24 39 C 27.300781 39 30 38.101563 30 37 C 30 36.601563 30 35.398438 30 35 C 30 36.101563 27.300781 37 24 37 Z" fill="#ffa000"/><path d="M 24 40 C 20.699219 40 18 39.101563 18 38 C 18 38.398438 18 39.601563 18 40 C 18 41.101563 20.699219 42 24 42 C 27.300781 42 30 41.101563 30 40 C 30 39.601563 30 38.398438 30 38 C 30 39.101563 27.300781 40 24 40 Z" fill="#ffa000"/><path d="M 30 23 C 30 21.894531 27.3125 21 24 21 C 20.6875 21 18 21.894531 18 23 C 18 24.105469 20.6875 25 24 25 C 27.3125 25 30 24.105469 30 23 Z" fill="#ffc107"/><path d="M 24 27 C 21.199219 27 18.898438 26.398438 18.199219 25.5 C 18.101563 25.699219 18 25.800781 18 26 C 18 27.101563 20.699219 28 24 28 C 27.300781 28 30 27.101563 30 26 C 30 25.800781 29.898438 25.699219 29.800781 25.5 C 29.101563 26.398438 26.800781 27 24 27 Z" fill="#ffc107"/><path d="M 24 30 C 21.199219 30 18.898438 29.398438 18.199219 28.5 C 18.101563 28.699219 18 28.800781 18 29 C 18 30.101563 20.699219 31 24 31 C 27.300781 31 30 30.101563 30 29 C 30 28.800781 29.898438 28.699219 29.800781 28.5 C 29.101563 29.398438 26.800781 30 24 30 Z" fill="#ffc107"/><path d="M 24 33 C 21.199219 33 18.898438 32.398438 18.199219 31.5 C 18.101563 31.699219 18 31.800781 18 32 C 18 33.101563 20.699219 34 24 34 C 27.300781 34 30 33.101563 30 32 C 30 31.800781 29.898438 31.699219 29.800781 31.5 C 29.101563 32.398438 26.800781 33 24 33 Z" fill="#ffc107"/><path d="M 24 36 C 21.199219 36 18.898438 35.398438 18.199219 34.5 C 18.101563 34.699219 18 34.800781 18 35 C 18 36.101563 20.699219 37 24 37 C 27.300781 37 30 36.101563 30 35 C 30 34.800781 29.898438 34.699219 29.800781 34.5 C 29.101563 35.398438 26.800781 36 24 36 Z" fill="#ffc107"/><path d="M 24 39 C 21.199219 39 18.898438 38.398438 18.199219 37.5 C 18.101563 37.699219 18 37.800781 18 38 C 18 39.101563 20.699219 40 24 40 C 27.300781 40 30 39.101563 30 38 C 30 37.800781 29.898438 37.699219 29.800781 37.5 C 29.101563 38.398438 26.800781 39 24 39 Z" fill="#ffc107"/></svg>
